X: 38
T:Haste to the 
R:Jig
Z:added by Alf 
M:6/8
L:1/8
Q:3/8=120
K:D
A|:AFA Agf|ede fdB|AFA AGF|GFG EFG|
AFA Agf|ede fdB|AFA faf|ded d2:|
a|:afa afa|bgb bgb|afa afa|gfg efg|
a3 ~f3|ede fdB|AFA faf|ded d2:|
